src/topics/icons/terraform.svg

<svg height="288" preserveAspectRatio="xMidYMid" viewBox="0 0 256 288" width="256" xmlns="http://www.w3.org/2000/svg"><path d="m87.3483423 49.909048 82.4956057 47.1361931v92.5924729l-82.4956057-47.136322zm86.8738887 139.313129 81.777769-46.996009v-91.9938886l-81.777769 46.6729147zm-174.222231-96.6298327 82.4955975 47.1363307v-92.5923533l-82.4955975-47.1363217zm87.3483423 147.9481047 82.4956057 47.136322v-92.915709l-82.4956057-47.136202z"/></svg>

<?xml version="1.0" encoding="UTF-8" standalone="no"?>
<svg width="256px" height="288px" viewBox="0 0 256 288" version="1.1" xmlns="http://www.w3.org/2000/svg" xmlns:xlink="http://www.w3.org/1999/xlink" preserveAspectRatio="xMidYMid">
    <g>
        <path d="M87.3483423,49.909048 L169.843948,97.0452411 L169.843948,189.637714 L87.3483423,142.501392 L87.3483423,49.909048 L87.3483423,49.909048 Z M174.222231,189.222177 L256,142.226168 L256,50.2322794 L174.222231,96.9051941 L174.222231,189.222177 L174.222231,189.222177 Z M0,92.5923443 L82.4955975,139.728675 L82.4955975,47.1363217 L0,0 L0,92.5923443 L0,92.5923443 Z M87.3483423,240.540449 L169.843948,287.676771 L169.843948,194.761062 L87.3483423,147.62486 L87.3483423,240.540449 L87.3483423,240.540449 Z" fill="#000000"></path>
    </g>
</svg>
